img/promise-bg-mob.svg

<svg width="84" height="430" viewBox="0 0 84 430" fill="none" xmlns="http://www.w3.org/2000/svg">
<path d="M24.0249 -72.7498L1 -86.0623L1 -112.687L24.0248 -126L47.0497 -112.687V-86.0623L24.0249 -72.7498Z" fill="#222222"/>
<path d="M70.0102 -72.7498L46.9853 -86.0623V-112.687L70.0102 -126L93.035 -112.687V-86.0623L70.0102 -72.7498Z" fill="#222222"/>
<path d="M24.0249 7.20166L1 -6.11091L1 -32.736L24.0248 -46.0486L47.0497 -32.736V-6.11091L24.0249 7.20166Z" fill="#222222"/>
<path d="M70.0102 7.20166L46.9853 -6.11091V-32.736L70.0102 -46.0486L93.035 -32.736V-6.11091L70.0102 7.20166Z" fill="#222222"/>
<path d="M24.0249 87.1531L1 73.8405L1 47.2154L24.0248 33.9028L47.0497 47.2154V73.8405L24.0249 87.1531Z" fill="#222222"/>
<path d="M70.0102 87.1531L46.9853 73.8405V47.2154L70.0102 33.9028L93.035 47.2154V73.8405L70.0102 87.1531Z" fill="#222222"/>
<path d="M24.0249 167.104L1 153.792L1 127.167L24.0248 113.854L47.0497 127.167V153.792L24.0249 167.104Z" fill="#222222"/>
<path d="M70.0102 167.104L46.9853 153.792V127.167L70.0102 113.854L93.035 127.167V153.792L70.0102 167.104Z" fill="#222222"/>
<path d="M24.0249 247.056L1 233.743L1 207.118L24.0248 193.806L47.0497 207.118V233.743L24.0249 247.056Z" fill="#222222"/>
<path d="M70.0102 247.056L46.9853 233.743V207.118L70.0102 193.806L93.035 207.118V233.743L70.0102 247.056Z" fill="#222222"/>
<path d="M24.0249 327.007L1 313.695L1 287.07L24.0248 273.757L47.0497 287.07V313.695L24.0249 327.007Z" fill="#222222"/>
<path d="M70.0102 327.007L46.9853 313.695V287.07L70.0102 273.757L93.035 287.07V313.695L70.0102 327.007Z" fill="#222222"/>
<path d="M24.0249 406.959L1 393.646L1 367.021L24.0248 353.709L47.0497 367.021V393.646L24.0249 406.959Z" fill="#222222"/>
<path d="M70.0102 406.959L46.9853 393.646V367.021L70.0102 353.709L93.035 367.021V393.646L70.0102 406.959Z" fill="#222222"/>
<path d="M24.0249 486.91L1 473.598L1 446.972L24.0248 433.66L47.0497 446.972V473.598L24.0249 486.91Z" fill="#222222"/>
<path d="M70.0102 486.91L46.9853 473.598V446.972L70.0102 433.66L93.035 446.972V473.598L70.0102 486.91Z" fill="#222222"/>
<path d="M46.9146 -32.66L23.8897 -45.9725L23.8897 -72.5976L46.9146 -85.9102L69.9394 -72.5976V-45.9725L46.9146 -32.66Z" fill="#222222"/>
<path d="M46.9146 47.2915L23.8897 33.9789L23.8897 7.35381L46.9146 -5.95876L69.9394 7.35381V33.9789L46.9146 47.2915Z" fill="#222222"/>
<path d="M46.9146 127.243L23.8897 113.93L23.8897 87.3052L46.9146 73.9927L69.9394 87.3052V113.93L46.9146 127.243Z" fill="#222222"/>
<path d="M46.9146 207.194L23.8897 193.882L23.8897 167.257L46.9146 153.944L69.9394 167.257V193.882L46.9146 207.194Z" fill="#222222"/>
<path d="M46.9146 287.146L23.8897 273.833L23.8897 247.208L46.9146 233.896L69.9394 247.208V273.833L46.9146 287.146Z" fill="#222222"/>
<path d="M46.9146 367.097L23.8897 353.785L23.8897 327.159L46.9146 313.847L69.9394 327.159V353.785L46.9146 367.097Z" fill="#222222"/>
<path d="M46.9146 447.049L23.8897 433.736L23.8897 407.111L46.9146 393.798L69.9394 407.111V433.736L46.9146 447.049Z" fill="#222222"/>
<path d="M46.9146 527L23.8897 513.687L23.8897 487.062L46.9146 473.75L69.9394 487.062V513.687L46.9146 527Z" fill="#222222"/>
<path d="M24.0521 -99.3749L1.02726 -112.687L24.0521 -126M24.0521 -99.3749L47.077 -112.687M24.0521 -99.3749L24.0521 -72.7498M47.0224 -112.687L23.9976 -126M70.0374 -99.3749L47.0126 -112.687L70.0374 -126M70.0374 -99.3749L93.0623 -112.687M70.0374 -99.3749L70.0375 -72.7498M93.0078 -112.687L69.9829 -126M92.9707 -86.0623V-112.687M24.0521 -19.4235L1.02726 -32.736L24.0521 -46.0486M24.0521 -19.4235L47.077 -32.736M24.0521 -19.4235L24.0521 7.20165M47.0224 -32.736L23.9976 -46.0486M70.0374 -19.4235L47.0126 -32.736L70.0374 -46.0486M70.0374 -19.4235L93.0623 -32.736M70.0374 -19.4235L70.0375 7.20165M93.0078 -32.736L69.9829 -46.0486M92.9707 -6.11091V-32.736M24.0521 60.528L1.02726 47.2154L24.0521 33.9028M24.0521 60.528L47.077 47.2154M24.0521 60.528L24.0521 87.1531M47.0224 47.2154L23.9976 33.9028M70.0374 60.528L47.0126 47.2154L70.0374 33.9028M70.0374 60.528L93.0623 47.2154M70.0374 60.528L70.0375 87.1531M93.0078 47.2154L69.9829 33.9028M92.9707 73.8405V47.2154M24.0521 140.479L1.02726 127.167L24.0521 113.854M24.0521 140.479L47.077 127.167M24.0521 140.479L24.0521 167.104M47.0224 127.167L23.9976 113.854M70.0374 140.479L47.0126 127.167L70.0374 113.854M70.0374 140.479L93.0623 127.167M70.0374 140.479L70.0375 167.104M93.0078 127.167L69.9829 113.854M92.9707 153.792V127.167M24.0521 220.431L1.02726 207.118L24.0521 193.806M24.0521 220.431L47.077 207.118M24.0521 220.431L24.0521 247.056M47.0224 207.118L23.9976 193.806M70.0374 220.431L47.0126 207.118L70.0374 193.806M70.0374 220.431L93.0623 207.118M70.0374 220.431L70.0375 247.056M93.0078 207.118L69.9829 193.806M92.9707 233.743V207.118M24.0521 300.382L1.02726 287.07L24.0521 273.757M24.0521 300.382L47.077 287.07M24.0521 300.382L24.0521 327.007M47.0224 287.07L23.9976 273.757M70.0374 300.382L47.0126 287.07L70.0374 273.757M70.0374 300.382L93.0623 287.07M70.0374 300.382L70.0375 327.007M93.0078 287.07L69.9829 273.757M92.9707 313.695V287.07M24.0521 380.334L1.02726 367.021L24.0521 353.709M24.0521 380.334L47.077 367.021M24.0521 380.334L24.0521 406.959M47.0224 367.021L23.9976 353.709M70.0374 380.334L47.0126 367.021L70.0374 353.709M70.0374 380.334L93.0623 367.021M70.0374 380.334L70.0375 406.959M93.0078 367.021L69.9829 353.709M92.9707 393.646V367.021M24.0521 460.285L1.02726 446.972L24.0521 433.66M24.0521 460.285L47.077 446.972M24.0521 460.285L24.0521 486.91M47.0224 446.972L23.9976 433.66M70.0374 460.285L47.0126 446.972L70.0374 433.66M70.0374 460.285L93.0623 446.972M70.0374 460.285L70.0375 486.91M93.0078 446.972L69.9829 433.66M92.9707 473.598V446.972M46.9418 -59.2851L23.917 -72.5976L46.9418 -85.9102M46.9418 -59.2851L69.9667 -72.5976M46.9418 -59.2851L46.9418 -32.6599M69.9122 -72.5976L46.8873 -85.9102M69.9023 -72.5976L92.9272 -85.9102M92.8999 -32.6599L69.8751 -45.9725V-72.5976L92.8999 -85.9102M46.9418 20.6664L23.917 7.3538L46.9418 -5.95876M46.9418 20.6664L69.9667 7.3538M46.9418 20.6664L46.9418 47.2915M69.9122 7.3538L46.8873 -5.95876M69.9023 7.3538L92.9272 -5.95876M92.8999 47.2915L69.8751 33.9789V7.3538L92.8999 -5.95876M46.9418 100.618L23.917 87.3052L46.9418 73.9927M46.9418 100.618L69.9667 87.3052M46.9418 100.618L46.9418 127.243M69.9122 87.3052L46.8873 73.9927M69.9023 87.3052L92.9272 73.9927M92.8999 127.243L69.8751 113.93V87.3052L92.8999 73.9927M46.9418 180.569L23.917 167.257L46.9418 153.944M46.9418 180.569L69.9667 167.257M46.9418 180.569L46.9418 207.194M69.9122 167.257L46.8873 153.944M69.9023 167.257L92.9272 153.944M92.8999 207.194L69.8751 193.882V167.257L92.8999 153.944M46.9418 260.521L23.917 247.208L46.9418 233.895M46.9418 260.521L69.9667 247.208M46.9418 260.521L46.9418 287.146M69.9122 247.208L46.8873 233.895M69.9023 247.208L92.9272 233.895M92.8999 287.146L69.8751 273.833V247.208L92.8999 233.895M46.9418 340.472L23.917 327.159L46.9418 313.847M46.9418 340.472L69.9667 327.159M46.9418 340.472L46.9418 367.097M69.9122 327.159L46.8873 313.847M69.9023 327.159L92.9272 313.847M92.8999 367.097L69.8751 353.785V327.159L92.8999 313.847M46.9418 420.423L23.917 407.111L46.9418 393.798M46.9418 420.423L69.9667 407.111M46.9418 420.423L46.9418 447.049M69.9122 407.111L46.8873 393.798M69.9023 407.111L92.9272 393.798M92.8999 447.049L69.8751 433.736V407.111L92.8999 393.798M46.9418 500.375L23.917 487.062L46.9418 473.75M46.9418 500.375L69.9667 487.062M46.9418 500.375L46.9418 527M69.9122 487.062L46.8873 473.75M69.9023 487.062L92.9272 473.75M69.8751 513.687V487.062L92.8999 473.75M24.0249 -72.7498L1 -86.0623L1 -112.687L24.0248 -126L47.0497 -112.687V-86.0623L24.0249 -72.7498ZM70.0102 -72.7498L46.9853 -86.0623V-112.687L70.0102 -126L93.035 -112.687V-86.0623L70.0102 -72.7498ZM24.0249 7.20165L1 -6.11091L1 -32.736L24.0248 -46.0486L47.0497 -32.736V-6.11091L24.0249 7.20165ZM70.0102 7.20165L46.9853 -6.11091V-32.736L70.0102 -46.0486L93.035 -32.736V-6.11091L70.0102 7.20165ZM24.0249 87.1531L1 73.8405L1 47.2154L24.0248 33.9028L47.0497 47.2154V73.8405L24.0249 87.1531ZM70.0102 87.1531L46.9853 73.8405V47.2154L70.0102 33.9028L93.035 47.2154V73.8405L70.0102 87.1531ZM24.0249 167.104L1 153.792L1 127.167L24.0248 113.854L47.0497 127.167V153.792L24.0249 167.104ZM70.0102 167.104L46.9853 153.792V127.167L70.0102 113.854L93.035 127.167V153.792L70.0102 167.104ZM24.0249 247.056L1 233.743L1 207.118L24.0248 193.806L47.0497 207.118V233.743L24.0249 247.056ZM70.0102 247.056L46.9853 233.743V207.118L70.0102 193.806L93.035 207.118V233.743L70.0102 247.056ZM24.0249 327.007L1 313.695L1 287.07L24.0248 273.757L47.0497 287.07V313.695L24.0249 327.007ZM70.0102 327.007L46.9853 313.695V287.07L70.0102 273.757L93.035 287.07V313.695L70.0102 327.007ZM24.0249 406.959L1 393.646L1 367.021L24.0248 353.709L47.0497 367.021V393.646L24.0249 406.959ZM70.0102 406.959L46.9853 393.646V367.021L70.0102 353.709L93.035 367.021V393.646L70.0102 406.959ZM24.0249 486.91L1 473.598L1 446.972L24.0248 433.66L47.0497 446.972V473.598L24.0249 486.91ZM70.0102 486.91L46.9853 473.598V446.972L70.0102 433.66L93.035 446.972V473.598L70.0102 486.91ZM46.9146 -32.6599L23.8897 -45.9725L23.8897 -72.5976L46.9146 -85.9102L69.9394 -72.5976V-45.9725L46.9146 -32.6599ZM46.9146 47.2915L23.8897 33.9789L23.8897 7.3538L46.9146 -5.95876L69.9394 7.3538V33.9789L46.9146 47.2915ZM46.9146 127.243L23.8897 113.93L23.8897 87.3052L46.9146 73.9927L69.9394 87.3052V113.93L46.9146 127.243ZM46.9146 207.194L23.8897 193.882L23.8897 167.257L46.9146 153.944L69.9394 167.257V193.882L46.9146 207.194ZM46.9146 287.146L23.8897 273.833L23.8897 247.208L46.9146 233.895L69.9394 247.208V273.833L46.9146 287.146ZM46.9146 367.097L23.8897 353.785L23.8897 327.159L46.9146 313.847L69.9394 327.159V353.785L46.9146 367.097ZM46.9146 447.049L23.8897 433.736L23.8897 407.111L46.9146 393.798L69.9394 407.111V433.736L46.9146 447.049ZM46.9146 527L23.8897 513.687L23.8897 487.062L46.9146 473.75L69.9394 487.062V513.687L46.9146 527Z" stroke="#BC9B77" stroke-width="0.267623" stroke-linejoin="round"/>
</svg>

<svg width="84" height="430" fill="none" xmlns="http://www.w3.org/2000/svg"><path d="M24.025-72.75L1-86.062v-26.625L24.025-126l23.025 13.313v26.625L24.025-72.75z" fill="#222"/><path d="M70.01-72.75L46.985-86.062v-26.625L70.01-126l23.025 13.313v26.625L70.01-72.75zM24.025 7.202L1-6.111v-26.625l23.025-13.313L47.05-32.736v26.625L24.025 7.202z" fill="#222"/><path d="M70.01 7.202L46.985-6.111v-26.625L70.01-46.049l23.025 13.313v26.625L70.01 7.202zM24.025 87.153L1 73.84V47.216l23.025-13.312L47.05 47.215v26.626L24.025 87.153z" fill="#222"/><path d="M70.01 87.153L46.985 73.84V47.216L70.01 33.903l23.025 13.312v26.626L70.01 87.153zm-45.985 79.951L1 153.792v-26.625l23.025-13.313 23.025 13.313v26.625l-23.025 13.312z" fill="#222"/><path d="M70.01 167.104l-23.025-13.312v-26.625l23.025-13.313 23.025 13.313v26.625L70.01 167.104zm-45.985 79.952L1 233.743v-26.625l23.025-13.312 23.025 13.312v26.625l-23.025 13.313z" fill="#222"/><path d="M70.01 247.056l-23.025-13.313v-26.625l23.025-13.312 23.025 13.312v26.625L70.01 247.056zm-45.985 79.951L1 313.695V287.07l23.025-13.313L47.05 287.07v26.625l-23.025 13.312z" fill="#222"/><path d="M70.01 327.007l-23.025-13.312V287.07l23.025-13.313 23.025 13.313v26.625L70.01 327.007zm-45.985 79.952L1 393.646v-26.625l23.025-13.312 23.025 13.312v26.625l-23.025 13.313z" fill="#222"/><path d="M70.01 406.959l-23.025-13.313v-26.625l23.025-13.312 23.025 13.312v26.625L70.01 406.959zM24.025 486.91L1 473.598v-26.626l23.025-13.312 23.025 13.312v26.626L24.025 486.91z" fill="#222"/><path d="M70.01 486.91l-23.025-13.312v-26.626L70.01 433.66l23.025 13.312v26.626L70.01 486.91zM46.915-32.66L23.89-45.973v-26.625L46.915-85.91l23.024 13.312v26.626L46.915-32.66zm0 79.951L23.89 33.98V7.354L46.915-5.96 69.939 7.354v26.625L46.915 47.292zm0 79.952L23.89 113.93V87.305l23.025-13.312 23.024 13.312v26.625l-23.024 13.313zm0 79.951L23.89 193.882v-26.625l23.025-13.313 23.024 13.313v26.625l-23.024 13.312zm0 79.952L23.89 273.833v-26.625l23.025-13.312 23.024 13.312v26.625l-23.024 13.313zm0 79.951L23.89 353.785v-26.626l23.025-13.312 23.024 13.312v26.626l-23.024 13.312z" fill="#222"/><path d="M46.915 447.049L23.89 433.736v-26.625l23.025-13.313 23.024 13.313v26.625l-23.024 13.313zm0 79.951L23.89 513.687v-26.625l23.025-13.312 23.024 13.312v26.625L46.915 527z" fill="#222"/><path d="M24.052-99.375L1.027-112.687 24.052-126m0 26.625l23.025-13.312M24.052-99.375v26.625m22.97-39.937L23.998-126m46.04 26.625l-23.025-13.312L70.037-126m0 26.625l23.025-13.312M70.037-99.375v26.625m22.97-39.937L69.984-126M92.97-86.062v-26.625M24.052-19.424L1.027-32.736l23.025-13.313m0 26.625l23.025-13.312M24.052-19.424V7.203m22.97-39.938L23.998-46.049m46.04 26.625L47.012-32.736l23.024-13.313m0 26.625l23.025-13.312M70.037-19.424V7.203m22.97-39.938L69.984-46.049M92.97-6.11v-26.625M24.052 60.528L1.027 47.215l23.025-13.312m0 26.625l23.025-13.313M24.052 60.528v26.625m22.97-39.938L23.998 33.903m46.04 26.625L47.012 47.215l23.024-13.312m0 26.625l23.025-13.313M70.037 60.528v26.625m22.97-39.938L69.984 33.903M92.97 73.84V47.215M24.052 140.48L1.027 127.167l23.025-13.313m0 26.625l23.025-13.312m-23.025 13.312v26.625m22.97-39.937l-23.024-13.313m46.04 26.625l-23.025-13.312 23.024-13.313m0 26.625l23.025-13.312m-23.025 13.312v26.625m22.97-39.937l-23.024-13.313m22.988 39.938v-26.625m-68.919 93.264L1.027 207.118l23.025-13.312m0 26.625l23.025-13.313m-23.025 13.313v26.625m22.97-39.938l-23.024-13.312m46.04 26.625l-23.025-13.313 23.024-13.312m0 26.625l23.025-13.313m-23.025 13.313v26.625m22.97-39.938l-23.024-13.312m22.988 39.937v-26.625m-68.919 93.264L1.027 287.07l23.025-13.313m0 26.625l23.025-13.312m-23.025 13.312v26.625m22.97-39.937l-23.024-13.313m46.04 26.625L47.012 287.07l23.024-13.313m0 26.625l23.025-13.312m-23.025 13.312v26.625m22.97-39.937l-23.024-13.313m22.988 39.938V287.07m-68.919 93.264L1.027 367.021l23.025-13.312m0 26.625l23.025-13.313m-23.025 13.313v26.625m22.97-39.938l-23.024-13.312m46.04 26.625l-23.025-13.313 23.024-13.312m0 26.625l23.025-13.313m-23.025 13.313v26.625m22.97-39.938l-23.024-13.312m22.988 39.937v-26.625m-68.919 93.264L1.027 446.972l23.025-13.312m0 26.625l23.025-13.313m-23.025 13.313v26.625m22.97-39.938L23.998 433.66m46.04 26.625l-23.025-13.313 23.024-13.312m0 26.625l23.025-13.313m-23.025 13.313v26.625m22.97-39.938L69.984 433.66m22.988 39.938v-26.626M46.94-59.285L23.918-72.598 46.942-85.91m0 26.625l23.025-13.313M46.942-59.285v26.625m22.97-39.938L46.887-85.91m23.015 13.312L92.927-85.91M92.9-32.66L69.875-45.973v-26.625L92.9-85.91M46.942 20.666L23.917 7.354 46.942-5.96m0 26.625L69.967 7.354M46.942 20.666v26.625m22.97-39.937L46.887-5.96M69.902 7.354L92.927-5.96M92.9 47.29L69.875 33.98V7.354L92.9-5.96M46.942 100.618L23.917 87.305l23.025-13.312m0 26.625l23.025-13.313m-23.025 13.313v26.625m22.97-39.938L46.887 73.993m23.015 13.312l23.025-13.312m-.027 53.25L69.875 113.93V87.305L92.9 73.993M46.942 180.569l-23.025-13.312 23.025-13.313m0 26.625l23.025-13.312m-23.025 13.312v26.625m22.97-39.937l-23.025-13.313m23.015 13.313l23.025-13.313m-.027 53.25l-23.025-13.312v-26.625L92.9 153.944M46.942 260.521l-23.025-13.313 23.025-13.313m0 26.626l23.025-13.313m-23.025 13.313v26.625m22.97-39.938l-23.025-13.313m23.015 13.313l23.025-13.313m-.027 53.251l-23.025-13.313v-26.625L92.9 233.895M46.942 340.472l-23.025-13.313 23.025-13.312m0 26.625l23.025-13.313m-23.025 13.313v26.625m22.97-39.938l-23.025-13.312m23.015 13.312l23.025-13.312m-.027 53.25l-23.025-13.312v-26.626L92.9 313.847M46.942 420.423l-23.025-13.312 23.025-13.313m0 26.625l23.025-13.312m-23.025 13.312v26.626m22.97-39.938l-23.025-13.313m23.015 13.313l23.025-13.313m-.027 53.251l-23.025-13.313v-26.625L92.9 393.798M46.942 500.375l-23.025-13.313 23.025-13.312m0 26.625l23.025-13.313m-23.025 13.313V527m22.97-39.938L46.887 473.75m23.015 13.312l23.025-13.312m-23.052 39.937v-26.625L92.9 473.75M24.025-72.75L1-86.062v-26.625L24.025-126l23.025 13.313v26.625L24.025-72.75zm45.985 0L46.985-86.062v-26.625L70.01-126l23.025 13.313v26.625L70.01-72.75zM24.025 7.202L1-6.111v-26.625l23.025-13.313L47.05-32.736v26.625L24.025 7.202zm45.985 0L46.985-6.111v-26.625L70.01-46.049l23.025 13.313v26.625L70.01 7.202zM24.025 87.153L1 73.84V47.216l23.025-13.312L47.05 47.215v26.626L24.025 87.153zm45.985 0L46.985 73.84V47.216L70.01 33.903l23.025 13.312v26.626L70.01 87.153zm-45.985 79.951L1 153.792v-26.625l23.025-13.313 23.025 13.313v26.625l-23.025 13.312zm45.985 0l-23.025-13.312v-26.625l23.025-13.313 23.025 13.313v26.625L70.01 167.104zm-45.985 79.952L1 233.743v-26.625l23.025-13.312 23.025 13.312v26.625l-23.025 13.313zm45.985 0l-23.025-13.313v-26.625l23.025-13.312 23.025 13.312v26.625L70.01 247.056zm-45.985 79.951L1 313.695V287.07l23.025-13.313L47.05 287.07v26.625l-23.025 13.312zm45.985 0l-23.025-13.312V287.07l23.025-13.313 23.025 13.313v26.625L70.01 327.007zm-45.985 79.952L1 393.646v-26.625l23.025-13.312 23.025 13.312v26.625l-23.025 13.313zm45.985 0l-23.025-13.313v-26.625l23.025-13.312 23.025 13.312v26.625L70.01 406.959zM24.025 486.91L1 473.598v-26.626l23.025-13.312 23.025 13.312v26.626L24.025 486.91zm45.985 0l-23.025-13.312v-26.626L70.01 433.66l23.025 13.312v26.626L70.01 486.91zM46.915-32.66L23.89-45.973v-26.625L46.915-85.91l23.024 13.312v26.626L46.915-32.66zm0 79.951L23.89 33.98V7.354L46.915-5.96 69.939 7.354v26.625L46.915 47.292zm0 79.952L23.89 113.93V87.305l23.025-13.312 23.024 13.312v26.625l-23.024 13.313zm0 79.951L23.89 193.882v-26.625l23.025-13.313 23.024 13.313v26.625l-23.024 13.312zm0 79.952L23.89 273.833v-26.625l23.025-13.313 23.024 13.313v26.625l-23.024 13.313zm0 79.951L23.89 353.785v-26.626l23.025-13.312 23.024 13.312v26.626l-23.024 13.312zm0 79.952L23.89 433.736v-26.625l23.025-13.313 23.024 13.313v26.625l-23.024 13.313zm0 79.951L23.89 513.687v-26.625l23.025-13.312 23.024 13.312v26.625L46.915 527z" stroke="#BC9B77" stroke-width=".268" stroke-linejoin="round"/></svg>
